public/images/icons/MySQL.svg

<svg width="200" height="198" viewBox="0 0 200 198" fill="none" xmlns="http://www.w3.org/2000/svg">
<path d="M56.9999 130.857C56.2499 133.12 55.8214 135.878 54.6071 137.893C46.0356 151.93 31.8571 137.964 28.6785 127.957C23.7975 112.447 25.1428 96.8314 32.7142 81.1093C33.238 80.0014 33.1428 78.9525 32.4285 77.9625C25.7856 68.7696 21.3095 58.5632 18.9999 47.3432C17.9999 42.4404 16.119 38.1032 13.3571 34.3318C7.39279 26.2704 -3.78579 14.4611 4.49993 4.59643C11.6071 -3.85392 27.7142 6.25822 34.3928 10.5011C37.8452 12.7168 41.7499 14.1782 46.1071 14.8854C99.0356 23.4771 128.25 66.33 146.643 113.815C147.143 115.111 148.059 116.007 149.393 116.502C167.726 123.408 183.869 134.463 197.821 149.667C198.94 150.893 199.024 152.201 198.071 153.591C197.262 154.746 196.155 155.536 194.75 155.96C186.369 158.459 178.071 160.592 169.857 162.36C167.357 162.879 167.048 163.998 168.928 165.719C175.428 171.706 182.452 177.375 190 182.726C192.5 184.494 194.762 186.568 196.786 188.949C197.952 190.292 198.417 191.742 198.179 193.297C197.964 194.83 197.119 195.855 195.643 196.374C194.643 196.751 193.738 196.586 192.929 195.879C185.905 189.726 178.393 183.728 170.393 177.882C164.536 173.568 159.571 167.664 157.5 160.557C157.378 160.161 157.34 159.745 157.388 159.332C157.436 158.92 157.569 158.52 157.779 158.157C157.989 157.794 158.272 157.475 158.61 157.219C158.949 156.963 159.337 156.776 159.75 156.668L184.75 150.445C186.298 150.044 186.488 149.313 185.321 148.253C173.321 137.292 160.119 129.148 145.714 123.821C144.342 123.308 143.096 122.521 142.056 121.51C141.016 120.499 140.206 119.286 139.679 117.951C121.25 71.6336 95.4285 30.2304 42.5356 22.4871C33.6071 21.1789 24.9642 14.0014 16.3928 10.0414C15.2023 9.49929 14.0118 9.27536 12.8214 9.36965C12.1258 9.42201 11.4573 9.65842 10.8856 10.0542C10.314 10.4499 9.86027 10.9904 9.5719 11.6192C9.28353 12.248 9.17111 12.942 9.24641 13.6285C9.32171 14.315 9.58195 14.9689 9.99993 15.5218C16.7856 24.6439 24.6785 33.8014 26.9285 45.3632C29.1428 56.6539 34.0118 67.0371 41.5356 76.5129C42.0226 77.1188 42.3167 77.8531 42.3804 78.6217C42.444 79.3902 42.2742 80.1579 41.8928 80.8264C33.7856 95.2168 31.1785 114.168 38.1071 128.7C39.6071 131.859 42.0356 134.192 45.3928 135.701C46.9642 136.408 47.8809 135.901 48.1428 134.18L51.6785 109.643C51.7455 109.171 51.9223 108.721 52.195 108.328C52.4677 107.935 52.8288 107.611 53.2499 107.38C54.1785 106.861 55.1785 106.826 56.2499 107.274C57.369 107.745 58.1309 108.535 58.5356 109.643C66.5118 131.163 77.1428 147.05 90.4285 157.304C90.7337 157.54 90.9887 157.833 91.1787 158.167C91.3687 158.5 91.4901 158.868 91.5356 159.249C91.7976 161.111 91.4285 162.336 90.4285 162.926C88.1666 164.269 86.0118 164.092 83.9642 162.395C73.4166 153.627 65.0833 143.079 58.9642 130.751C58.1785 129.171 57.5237 129.207 56.9999 130.857Z" fill="#0E9AD0"/>
<path d="M42.6785 37.8321C40.7023 37.9029 39.4166 37.125 38.8214 35.4986C38.572 34.8251 38.5039 34.0989 38.6236 33.3915C38.7433 32.684 39.0468 32.0195 39.5042 31.4633C39.9617 30.907 40.5574 30.478 41.2328 30.2185C41.9083 29.9589 42.6404 29.8777 43.3571 29.9829C50.5238 31.02 54.2619 35.0507 54.5714 42.075C54.6428 43.5364 54.0476 44.6561 52.7857 45.4339C51.6428 46.1411 50.4642 46.2589 49.25 45.7875C48.2261 45.3868 47.5238 44.6679 47.1428 43.6307L45.8214 39.9889C45.2976 38.5039 44.25 37.785 42.6785 37.8321Z" fill="#0E9AD0"/>
</svg>

<svg width="200" height="198" fill="none" xmlns="http://www.w3.org/2000/svg"><path d="M57 130.857c-.75 2.263-1.179 5.021-2.393 7.036-8.571 14.037-22.75.071-25.928-9.936-4.881-15.51-3.536-31.126 4.035-46.848.524-1.108.429-2.156-.285-3.146-6.643-9.193-11.12-19.4-13.43-30.62-1-4.903-2.88-9.24-5.642-13.011C7.393 26.27-3.786 14.462 4.5 4.596c7.107-8.45 23.214 1.662 29.893 5.905 3.452 2.216 7.357 3.677 11.714 4.384 52.929 8.592 82.143 51.445 100.536 98.93.5 1.296 1.416 2.192 2.75 2.687 18.333 6.906 34.476 17.961 48.428 33.165 1.119 1.226 1.203 2.534.25 3.924-.809 1.155-1.916 1.945-3.321 2.369a330.539 330.539 0 0 1-24.893 6.4c-2.5.519-2.809 1.638-.929 3.359 6.5 5.987 13.524 11.656 21.072 17.007a36.677 36.677 0 0 1 6.786 6.223c1.166 1.343 1.631 2.793 1.393 4.348-.215 1.533-1.06 2.558-2.536 3.077-1 .377-1.905.212-2.714-.495-7.024-6.153-14.536-12.151-22.536-17.997-5.857-4.314-10.822-10.218-12.893-17.325a2.984 2.984 0 0 1-.112-1.225c.048-.412.181-.812.391-1.175a3.17 3.17 0 0 1 .831-.938 3.26 3.26 0 0 1 1.14-.551l25-6.223c1.548-.401 1.738-1.132.571-2.192-12-10.961-25.202-19.105-39.607-24.432a10.542 10.542 0 0 1-3.658-2.311 10.18 10.18 0 0 1-2.377-3.559c-18.429-46.317-44.25-87.72-97.143-95.464-8.929-1.308-17.572-8.486-26.143-12.446-1.19-.542-2.381-.766-3.572-.671a3.918 3.918 0 0 0-1.935.684 3.863 3.863 0 0 0-1.314 1.565A3.82 3.82 0 0 0 10 15.522c6.786 9.122 14.678 18.28 16.928 29.841 2.215 11.29 7.084 21.674 14.608 31.15.487.606.78 1.34.844 2.109a3.812 3.812 0 0 1-.487 2.204c-8.107 14.39-10.715 33.342-3.786 47.874 1.5 3.159 3.929 5.492 7.286 7.001 1.571.707 2.488.2 2.75-1.521l3.535-24.537a3.06 3.06 0 0 1 .517-1.315 3.093 3.093 0 0 1 1.055-.948c.928-.519 1.928-.554 3-.106 1.119.471 1.88 1.261 2.286 2.369 7.976 21.52 18.607 37.407 31.892 47.661a2.91 2.91 0 0 1 1.108 1.945c.262 1.862-.108 3.087-1.108 3.677-2.261 1.343-4.416 1.166-6.464-.531-10.547-8.768-18.88-19.316-25-31.644-.785-1.58-1.44-1.544-1.964.106Z" fill="#0E9AD0"/><path d="M42.678 37.832c-1.976.07-3.261-.707-3.857-2.333a4.098 4.098 0 0 1 .683-4.036 4.177 4.177 0 0 1 1.729-1.245 4.217 4.217 0 0 1 2.124-.235c7.167 1.037 10.905 5.068 11.214 12.092.072 1.461-.523 2.581-1.785 3.359-1.143.707-2.322.825-3.536.354-1.024-.401-1.726-1.12-2.107-2.157l-1.322-3.642c-.523-1.485-1.571-2.204-3.142-2.157Z" fill="#0E9AD0"/></svg>
